homework_5/images/cart.svg

<?xml version="1.0"?>
<svg xmlns="http://www.w3.org/2000/svg" xmlns:xlink="http://www.w3.org/1999/xlink" xmlns:svgjs="http://svgjs.com/svgjs" version="1.1" width="512" height="512" x="0" y="0" viewBox="0 0 512.00026 512" style="enable-background:new 0 0 512 512" xml:space="preserve" class=""><g><path xmlns="http://www.w3.org/2000/svg" d="m164.960938 300.003906h.023437c.019531 0 .039063-.003906.058594-.003906h271.957031c6.695312 0 12.582031-4.441406 14.421875-10.878906l60-210c1.292969-4.527344.386719-9.394532-2.445313-13.152344-2.835937-3.757812-7.269531-5.96875-11.976562-5.96875h-366.632812l-10.722657-48.253906c-1.527343-6.863282-7.613281-11.746094-14.644531-11.746094h-90c-8.285156 0-15 6.714844-15 15s6.714844 15 15 15h77.96875c1.898438 8.550781 51.3125 230.917969 54.15625 243.710938-15.941406 6.929687-27.125 22.824218-27.125 41.289062 0 24.8125 20.1875 45 45 45h272c8.285156 0 15-6.714844 15-15s-6.714844-15-15-15h-272c-8.269531 0-15-6.730469-15-15 0-8.257812 6.707031-14.976562 14.960938-14.996094zm312.152343-210.003906-51.429687 180h-248.652344l-40-180zm0 0" fill="#f8f8f8" data-original="#000000" style="" class=""/><path xmlns="http://www.w3.org/2000/svg" d="m150 405c0 24.8125 20.1875 45 45 45s45-20.1875 45-45-20.1875-45-45-45-45 20.1875-45 45zm45-15c8.269531 0 15 6.730469 15 15s-6.730469 15-15 15-15-6.730469-15-15 6.730469-15 15-15zm0 0" fill="#f8f8f8" data-original="#000000" style="" class=""/><path xmlns="http://www.w3.org/2000/svg" d="m362 405c0 24.8125 20.1875 45 45 45s45-20.1875 45-45-20.1875-45-45-45-45 20.1875-45 45zm45-15c8.269531 0 15 6.730469 15 15s-6.730469 15-15 15-15-6.730469-15-15 6.730469-15 15-15zm0 0" fill="#f8f8f8" data-original="#000000" style="" class=""/></g></svg>

<?xml version="1.0" encoding="utf-8"?>
<!-- Generator: Adobe Illustrator 24.3.0, SVG Export Plug-In . SVG Version: 6.00 Build 0)  -->
<svg version="1.1" id="Layer_1" xmlns:svgjs="http://svgjs.com/svgjs"
	 xmlns="http://www.w3.org/2000/svg" xmlns:xlink="http://www.w3.org/1999/xlink" x="0px" y="0px" viewBox="0 0 512 450"
	 style="enable-background:new 0 0 512 450;" xml:space="preserve">
<style type="text/css">
	.st0{fill:#F8F8F8;}
</style>
<g>
	<path class="st0" d="M165,300L165,300C165,300,165,300,165,300l272,0c6.7,0,12.6-4.4,14.4-10.9l60-210c1.3-4.5,0.4-9.4-2.4-13.2
		c-2.8-3.8-7.3-6-12-6H130.4l-10.7-48.3C118.1,4.9,112,0,105,0H15C6.7,0,0,6.7,0,15s6.7,15,15,15h78c1.9,8.6,51.3,230.9,54.2,243.7
		c-15.9,6.9-27.1,22.8-27.1,41.3c0,24.8,20.2,45,45,45h272c8.3,0,15-6.7,15-15s-6.7-15-15-15H165c-8.3,0-15-6.7-15-15
		C150,306.7,156.7,300,165,300z M477.1,90l-51.4,180H177L137,90H477.1z"/>
	<path class="st0" d="M150,405c0,24.8,20.2,45,45,45s45-20.2,45-45s-20.2-45-45-45S150,380.2,150,405z M195,390c8.3,0,15,6.7,15,15
		s-6.7,15-15,15s-15-6.7-15-15S186.7,390,195,390z"/>
	<path class="st0" d="M362,405c0,24.8,20.2,45,45,45s45-20.2,45-45s-20.2-45-45-45S362,380.2,362,405z M407,390c8.3,0,15,6.7,15,15
		s-6.7,15-15,15s-15-6.7-15-15S398.7,390,407,390z"/>
</g>
</svg>
